svgs/light/house-chimney-medical.svg

<svg xmlns="http://www.w3.org/2000/svg" viewBox="0 0 576 512"><!--! Font Awesome Pro 6.6.0 by @fontawesome - https://fontawesome.com License - https://fontawesome.com/license (Commercial License) Copyright 2024 Fonticons, Inc. --><path d="M277.4 4c6-5.3 15.1-5.3 21.2 0L384 79.4 384 56c0-13.3 10.7-24 24-24l80 0c13.3 0 24 10.7 24 24l0 136.3L570.6 244c6.6 5.8 7.3 16 1.4 22.6s-16 7.3-22.6 1.4L512 235l0 197c0 44.2-35.8 80-80 80l-288 0c-44.2 0-80-35.8-80-80l0-197L26.6 268C20 273.8 9.8 273.2 4 266.6S-1.2 249.8 5.4 244L277.4 4zM480 164.1L480 64l-64 0 0 43.6 64 56.5zM96 206.7L96 432c0 26.5 21.5 48 48 48l288 0c26.5 0 48-21.5 48-48l0-225.3L288 37.3 96 206.7zM272 176l32 0c17.7 0 32 14.3 32 32l0 32 32 0c17.7 0 32 14.3 32 32l0 32c0 17.7-14.3 32-32 32l-32 0 0 32c0 17.7-14.3 32-32 32l-32 0c-17.7 0-32-14.3-32-32l0-32-32 0c-17.7 0-32-14.3-32-32l0-32c0-17.7 14.3-32 32-32l32 0 0-32c0-17.7 14.3-32 32-32zm0 32l0 48c0 4.2-1.7 8.3-4.7 11.3s-7.1 4.7-11.3 4.7l-48 0 0 32 48 0c8.8 0 16 7.2 16 16l0 48 32 0 0-48c0-8.8 7.2-16 16-16l48 0 0-32-48 0c-8.8 0-16-7.2-16-16l0-48-32 0z"/></svg>

<svg xmlns="http://www.w3.org/2000/svg" viewBox="0 0 576 512"><!--! Font Awesome Pro 6.4.0 by @fontawesome - https://fontawesome.com License - https://fontawesome.com/license (Commercial License) Copyright 2023 Fonticons, Inc. --><path d="M277.4 4c6-5.3 15.1-5.3 21.2 0L384 79.4V56c0-13.3 10.7-24 24-24h80c13.3 0 24 10.7 24 24V192.3L570.6 244c6.6 5.8 7.3 16 1.4 22.6s-16 7.3-22.6 1.4L512 235V432c0 44.2-35.8 80-80 80H144c-44.2 0-80-35.8-80-80V235L26.6 268C20 273.8 9.8 273.2 4 266.6S-1.2 249.8 5.4 244L277.4 4zM480 164.1V64H416v43.6l64 56.5zM96 206.7V432c0 26.5 21.5 48 48 48H432c26.5 0 48-21.5 48-48V206.7L288 37.3 96 206.7zM272 176h32c17.7 0 32 14.3 32 32v32h32c17.7 0 32 14.3 32 32v32c0 17.7-14.3 32-32 32H336v32c0 17.7-14.3 32-32 32H272c-17.7 0-32-14.3-32-32V336H208c-17.7 0-32-14.3-32-32V272c0-17.7 14.3-32 32-32h32V208c0-17.7 14.3-32 32-32zm0 32v48c0 4.2-1.7 8.3-4.7 11.3s-7.1 4.7-11.3 4.7H208v32h48c8.8 0 16 7.2 16 16v48h32V320c0-8.8 7.2-16 16-16h48V272H320c-8.8 0-16-7.2-16-16V208H272z"/></svg>
